X: 1745
T: Apples In Winter
R: jig
M: 6/8
K: Edorian
|:A|BdB cec|dfd BAG|D3 FEF|ABc d2A|
BdB cec|def gfe|def g2a|bee e2:|
|:f|gef gef|gef gfe|dfe dfe|dfe def|
edB def|gbc gfe|fdB AGF|GEE E2:|

